X:1
T:Britches Full Of Stitches, The
T:Breeches Full Of Stitches, The
T:Britches Full Of Stitches
T:O The Britches Full Of Stitches
T:Oh The Breeches Full Of Stitches
T:Oh! The Breeches Full Of Stitches
T:Oh! The Britches Full Of Stitches
T:Witches' Britches
M:2/4
L:1/8
R:polka
Z: Contributed 2016-02-01 22:03:05 by MDGalligan MDGalligan@Comcast.net
K:Dmaj
|:d>e fd|ed fd|d>e fd|edB2|d>e fd|ed fa|d>e dB|BA A2:|
|:~a2af|ed ef|~a2af|edb2|~a2af|ed ef|d>e dB|BA A2:|
W:Variation from ceolachan
K: A Major
A>B cA | BA cA | A>B c/B/A | FA EF |
AA/B/ cA | BA ce | | A>B AF | FE E :|
ee/f/ ec | BA Bc | e>f ec | BA F2 |
e>f ec | BA Bc | AA/B/ c/B/A |FA E>c |
ef ec | B>^A Bc | a>f e/f/e/c/ | BA FA |
e2 ec | BA B2 | AA/B/ A/G/F | FE E :|
K: G Major
|: GA B/A/G | AG BG | GA BG | AG E2 |
GA BG | AG Bd | GA GE | ED D2 :|
|: d/e/d/c/ dB | AG AB | g/a/g/f/ ge | dB A2 |
d2 dB | A/B/A/G/ A2 | G2 GE | ED D :|

